client/src/assets/buttons/edit-icon.svg

<svg width="6" height="26" viewBox="0 0 6 26" fill="none" xmlns="http://www.w3.org/2000/svg">
<path d="M6 3C6 4.65685 4.65685 6 3 6C1.34315 6 0 4.65685 0 3C0 1.34315 1.34315 0 3 0C4.65685 0 6 1.34315 6 3Z" fill="#BCB6CD"/>
<path d="M6 13C6 14.6569 4.65685 16 3 16C1.34315 16 0 14.6569 0 13C0 11.3431 1.34315 10 3 10C4.65685 10 6 11.3431 6 13Z" fill="#BCB6CD"/>
<path d="M6 23C6 24.6569 4.65685 26 3 26C1.34315 26 0 24.6569 0 23C0 21.3431 1.34315 20 3 20C4.65685 20 6 21.3431 6 23Z" fill="#BCB6CD"/>
</svg>

<svg xmlns="http://www.w3.org/2000/svg" width="6" height="26" fill="none"><path fill="#BCB6CD" d="M6 3c0 1.6569-1.3431 3-3 3-1.6568 0-3-1.3431-3-3 0-1.6568 1.3432-3 3-3 1.6569 0 3 1.3432 3 3ZM6 13c0 1.6569-1.3431 3-3 3-1.6568 0-3-1.3431-3-3s1.3432-3 3-3c1.6569 0 3 1.3431 3 3ZM6 23c0 1.6569-1.3431 3-3 3-1.6568 0-3-1.3431-3-3s1.3432-3 3-3c1.6569 0 3 1.3431 3 3Z"/></svg>
